X:146
T:Donnelly's Hornpipe
B:Terry "Cuz" Teahan "Sliabh Luachra on Parade" 1980
Z:Patrick Cavanagh
M:4/4
L:1/8
R:Hornpipe
K:G
D2 | GA B/c/B ABcd | eaaa gedB | c/B/A BG ABBA | GABG AGED | 
GA B/c/B ABcd | eaaa gedB | c/B/A BG ABBA | GEDE [1]G2 :|[2] G4
|: DGGG BGGG | dBeB d2d2 | B/c/d BG ABBA | GABG AGED | 
GA B/c/B ABcd | eaaf gedB | c/B/A BG ABBA | GEDE G2G2 :|| 

